X: 9079
T: Da Mill
R: reel
M: 4/4
K: Dmajor
ABcd e2 f2|{c}d2 dd d2 {g}fe|dcBA ABcA|{A}B2 EE E2 ec|
dcBA ABcA|{c}d2 dd d2 {g}fe|dcBA {Bc}d2cB|A2 AB A4:|
|:e>cAc e>cAc|f>dBd f>d B2|A>FDF A>FDF|B>GEG B>G E2|
e>cAc edef|{c}d2 dd d2 fe|dcBA {Bc}d2 cB|A2 AB A4:|

